48x48/apps/brackets.svg

<svg xmlns="http://www.w3.org/2000/svg" width="48" height="48" version="1"><rect style="opacity:.2" width="40" height="40" x="4" y="5" rx="2" ry="2"/><rect style="fill:#29aae2" width="40" height="40" x="4" y="4" rx="2" ry="2"/><rect style="opacity:.2" width="32" height="32" x="8" y="9" rx="2" ry="2"/><rect style="fill:#f4f4f7" width="32" height="32" x="8" y="8" rx="2" ry="2"/><path style="fill:#424242" d="M11 11v26h10v-5h-5V16h5v-5H11zm16 0v5h5v16h-5v5h10V11H27z"/><path style="fill:#f4f4f7;opacity:.2" d="M6 4c-1.108 0-2 .892-2 2v1c0-1.108.892-2 2-2h36c1.108 0 2 .892 2 2V6c0-1.108-.892-2-2-2H6z"/></svg>

<svg xmlns="http://www.w3.org/2000/svg" width="48" height="48" version="1">
 <rect style="opacity:0.2" width="40" height="40" x="4" y="5" rx="2" ry="2"/>
 <rect style="fill:#29aae2" width="40" height="40" x="4" y="4" rx="2" ry="2"/>
 <rect style="opacity:0.2" width="32" height="32" x="8" y="9" rx="2" ry="2"/>
 <rect style="fill:#f4f4f7" width="32" height="32" x="8" y="8" rx="2" ry="2"/>
 <path style="fill:#424242" d="M 11 11 L 11 37 L 21 37 L 21 32 L 16 32 L 16 16 L 21 16 L 21 11 L 11 11 z M 27 11 L 27 16 L 32 16 L 32 32 L 27 32 L 27 37 L 37 37 L 37 11 L 27 11 z"/>
 <path style="fill:#f4f4f7;opacity:0.2" d="M 6 4 C 4.892 4 4 4.892 4 6 L 4 7 C 4 5.892 4.892 5 6 5 L 42 5 C 43.108 5 44 5.892 44 7 L 44 6 C 44 4.892 43.108 4 42 4 L 6 4 z"/>
</svg>
